!!!CDT:
!!!PTL: Il primo libro de madrigali a sei voci
!!!PPP: Venice
!!!PPR: Amadino
!!!PDT: 1591
!!!PUB-format:
!!!RISM: V 2107
!!!rime: 266
!!!AGN: Madrigal
!!!SCT: Trm0266a
!!!SCA: Trm0266a
!!!original-voices: 6
!!!extant-voices: 5
!!!complete: N
!!!final: F
!!!COM: Virchi, Paolo
!!!OTL: Dolcissimi colori
**kern	**text	**kern	**text	**kern	**text	**kern	**text	**kern	**text
*part5	*part5	*part4	*part4	*part3	*part3	*part2	*part2	*part1	*part1
*staff5	*staff5	*staff4	*staff4	*staff3	*staff3	*staff2	*staff2	*staff1	*staff1
*I"Basso	*	*I"Quinto	*	*I"Alto	*	*I"Sesto	*	*I"Canto	*
*I'B	*	*I'V	*	*I'A	*	*I'VI	*	*I'C	*
*oclefF3	*	*oclefC3	*	*oclefC2	*	*oclefG2	*	*oclefG2	*
*clefF4	*	*clefGv2	*	*clefG2	*	*clefG2	*	*clefG2	*
*k[b-]	*	*k[b-]	*	*k[b-]	*	*k[b-]	*	*k[b-]	*
*F:	*	*F:	*	*F:	*	*F:	*	*F:	*
*omet(C)	*	*omet(C)	*	*omet(C)	*	*omet(C)	*	*omet(C)	*
*M4/2	*	*M4/2	*	*M4/2	*	*M4/2	*	*M4/2	*
=1	=1	=1	=1	=1	=1	=1	=1	=1	=1
0r	.	2r	.	1a	Dol-	0r	.	1cc	Dol-
.	.	2f	Dol-	.	.	.	.	.	.
.	.	2.f	-cis-	2.a	-cis-	.	.	2.dd	-cis-
.	.	4f	-si-	4b-y	-si-	.	.	4dd	-si-
=2	=2	=2	=2	=2	=2	=2	=2	=2	=2
1r	.	4f	-mi	4a	-mi	1r	.	4dd	-mi
.	.	2f	co-	4a	co-	.	.	4cc	co-
.	.	.	.	2g	-lo-	.	.	2cc	-lo-
.	.	4e	-lo-	.	.	.	.	.	.
2r	.	1f	.	2a	-ri,	2r	.	2.cc	-ri,
2F	Dol-	.	.	2a	Dol-	2ff	Dol-	.	.
.	.	.	.	.	.	.	.	4cc	Dol-
=3	=3	=3	=3	=3	=3	=3	=3	=3	=3
2.D	-cis-	1f	-ri,	2.a	-cis-	2.ff	-cis-	2.dd	-cis-
4D	-si-	.	.	4b-y	-si-	4ff	-si-	4dd	-si-
4D	-mi	1r	.	4a	-mi	4ff	-mi	4dd	-mi
4AA	co-	.	.	4a	co-	4ff	co-	4cc	co-
2C	-lo-	.	.	2g	-lo-	2ee	-lo-	2cc	-lo-
=4	=4	=4	=4	=4	=4	=4	=4	=4	=4
2F	-ri,	2r	.	2.a	-ri,	2.ff	-ri,	1cc	-ri,
2F	Voi	2f	Voi	.	.	.	.	.	.
.	.	.	.	4a	Voi	4cc	Voi	.	.
4B-y	vi	4d	vi	4f	vi	4dd	vi	1r	.
4A	mu-	4f	mu-	4a	mu-	4cc	mu-	.	.
4d	-ta-	4f	-ta-	8b-y	-ta-	4ff	-ta-	.	.
.	.	.	.	8a	-te ed	.	.	.	.
4c	-te, ed	4a	-te, ed	[4a	i-	4ee	-te, ed	.	.
=5	=5	=5	=5	=5	=5	=5	=5	=5	=5
2B-y	i-	2d	i-	4a]	.	2dd	i-	2r	.
.	.	.	.	4g	.	.	.	.	.
2A	-o	4f	-o	2a	-o	2cc	-o	2cc	Co-
.	.	4f	Co-	.	.	.	.	.	.
2r	.	2a	-lor	1r	.	2r	.	2.ff	-lor
2D	Co-	[2f	mu-	.	.	2a	Co-	.	.
.	.	.	.	.	.	.	.	[4dd	mu-
=6	=6	=6	=6	=6	=6	=6	=6	=6	=6
2A	-lor	4f]	.	0r	.	2a	-lor	4dd]	.
.	.	4e	-to	.	.	.	.	4cc	-to
2.F	mu-	2f	con	.	.	2.a	mu-	2cc	con
.	.	[1f	vo-	.	.	.	.	2cc	vo-
4F	-to	.	.	.	.	4a	-to	.	.
2F	con	.	.	.	.	2a	con	2a	-i,
=7	=7	=7	=7	=7	=7	=7	=7	=7	=7
1G	vo-	2f]	.	2r	.	1b-y	vo-	1r	.
.	.	2e	.	2g	Co-	.	.	.	.
2.F	-i,	2f	-i,	4cc	-lor	2a	-i,	2r	.
.	.	.	.	4.a	mu-	.	.	.	.
.	.	4r	.	.	.	2r	.	2cc	ma
.	.	.	.	8a	-to	.	.	.	.
4E	ma	4g	ma	4g	con	.	.	.	.
=8	=8	=8	=8	=8	=8	=8	=8	=8	=8
2D	non	2.f	non	2a	voi,	0r	.	2.dd	non
2BB-y	de-	.	.	4b-y	ma	.	.	.	.
.	.	2g	de-	2b-y	non	.	.	4dd	de-
1C	-si-	.	.	.	.	.	.	1cc	-si-
.	.	2f	-si-	4a	de-	.	.	.	.
.	.	.	.	2g	-si-	.	.	.	.
.	.	4e	.	.	.	.	.	.	.
=9	=9	=9	=9	=9	=9	=9	=9	=9	=9
1F	-o.	1f	-o.	2.a	-o.	2r	.	1cc	-o.
.	.	.	.	.	.	2cc	Sem-	.	.
.	.	.	.	4a	Sem-	.	.	.	.
1r	.	1r	.	4f	-pre	4a	-pre	1r	.
.	.	.	.	4f	vor-	4cc	vor-	.	.
.	.	.	.	4f	-rei	4b-y	-rei	.	.
.	.	.	.	4g	mi-	4b-y	mi-	.	.
=10	=10	=10	=10	=10	=10	=10	=10	=10	=10
2r	.	0r	.	8aL	-rar-	2a	-rar-	2r	.
.	.	.	.	8b-y	.	.	.	.	.
.	.	.	.	8cc	.	.	.	.	.
.	.	.	.	8b-yJ	.	.	.	.	.
2F	Sem-	.	.	8aL	.	4a	-vi,	2ff	Sem-
.	.	.	.	8gJ	.	.	.	.	.
.	.	.	.	4a	.	4cc	Sem-	.	.
4G	-pre	.	.	4g	-vi,	4b-y	-pre	4dd	-pre
4D	vor-	.	.	4a	Sem-	4dd	vor-	4ff	vor-
4G	-rei	.	.	4b-y	-pre	4dd	-rei	4ee	-rei
4A	mi-	.	.	4a	vor-	4cc#X	mi-	4ee	mi-
=11	=11	=11	=11	=11	=11	=11	=11	=11	=11
1B-y	-rar-	2r	.	4f	-rei	2dd	-rar-	8ddL	-rar-
.	.	.	.	.	.	.	.	8ee	.
.	.	.	.	4f	mi-	.	.	8ff	.
.	.	.	.	.	.	.	.	8eeJ	.
.	.	2d	Sem-	2g	-rar-	2b-y	-vi,	8ddL	.
.	.	.	.	.	.	.	.	8ccJ	.
.	.	.	.	.	.	.	.	4dd	.
2A	-vi,	4e	-pre	1a	-vi,	2r	.	1cc	-vi,
.	.	4c	vor-	.	.	.	.	.	.
2F	Sem-	4.f	-rei	.	.	4r	.	.	.
.	.	.	.	.	.	4ccnXi	<Sem-	.	.
.	.	8g	mi-	.	.	.	.	.	.
=12	=12	=12	=12	=12	=12	=12	=12	=12	=12
4D	-pre	2a	-rar-	4r	.	4dd	-pre	1r	.
4F	vor-	.	.	4f	Sem-	4a	vor-	.	.
4F	-rei	4f	-vi,	4a	-pre	4dd	-rei	.	.
4E	mi-	4c	Sem-	4g	vor-	4ee	mi-	.	.
2D	-rar-	4d	-pre	4f	-rei	2ff	-rar-	2r	.
.	.	4d	vor-	4f	mi-	.	.	.	.
2C	-vi,	4e	-rei	4g	-rar-	2ee	-vi,>	4r	.
.	.	4e	mi-	4g	-vi, e	.	.	4cc	e
=13	=13	=13	=13	=13	=13	=13	=13	=13	=13
0r	.	2.f	-rar-	4a	se	1r	.	4cc	se
.	.	.	.	4g	fio-	.	.	4b-y	fio-
.	.	.	.	4f	-ri-	.	.	4a	-ri-
.	.	4c	-vi, e	8eL	.	.	.	8gL	.
.	.	.	.	8dJ	.	.	.	8fJ	.
.	.	4c	se	2e	.	2r	.	2g	.
.	.	4B-y	fio-	.	.	.	.	.	.
.	.	4A	-ri-	4e	-re,	4r	.	4a	-re,
.	.	8GL	.	4a	e	4ff	e	4cc	e
.	.	8FJ	.	.	.	.	.	.	.
=14	=14	=14	=14	=14	=14	=14	=14	=14	=14
0r	.	2c	.	4a	se	4ff	se	4.cc	se
.	.	.	.	4g	fio-	4ee	fio-	.	.
.	.	.	.	.	.	.	.	8b-y	fio-
.	.	2f	-re,	4f	-ri-	4dd	-ri-	4a	.
.	.	.	.	8eL	.	8ccL	.	8gL	.
.	.	.	.	8dJ	.	8b-yJ	.	8fJ	.
.	.	1r	.	2.e	.	1cc	.	1g	-ri-
.	.	.	.	4d	.	.	.	.	.
=15	=15	=15	=15	=15	=15	=15	=15	=15	=15
4r	.	4r	.	2c	-re	2cc	-re,	2a	-re,
4F	e	4a	e	.	.	.	.	.	.
4F	se	4a	se	2r	.	4r	.	2r	.
4E	fio-	4g	fio-	.	.	4cc	e	.	.
4D	-ri-	4f	-ri-	1r	.	4cc	se	4r	.
8CL	.	8eL	.	.	.	4b-y	fio-	4ff	e
8BB-yJ	.	8dJ	.	.	.	.	.	.	.
[2C	.	[2c	.	.	.	4a	-ri-	4ff	se
.	.	.	.	.	.	8gL	.	4ee	fio-
.	.	.	.	.	.	8fJ	.	.	.
=16	=16	=16	=16	=16	=16	=16	=16	=16	=16
2C]	.	4c]	.	1r	.	2g	.	4ee	-ri-
.	.	8BnXL	.	.	.	.	.	8ddL	.
.	.	8AJ	.	.	.	.	.	8ccJ	.
2G	-re	2BnX	.	.	.	2.g	-re	2dd	.
4r	.	1c	-re	2r	.	.	.	1cc	-re
4C	Un	.	.	.	.	4g	Un	.	.
4C	bel	.	.	4r	.	4g	bel	.	.
4C	pur-	.	.	4c	Un	4g	pur-	.	.
=17	=17	=17	=17	=17	=17	=17	=17	=17	=17
2.F	-pu-	4r	.	4c	bel	2a	-pu-	4r	.
.	.	4A	Un	4c	pur-	.	.	4cc	Un
.	.	4A	bel	4f	-pu-	4a	-reo	4cc	bel
4E	-reo	4G	pur-	4g	-reo	2cc	veg-	4cc	pur-
2D	veg-	2F	-pu-	4a	veg-	.	.	2.ff	-pu-
.	.	.	.	8gL	.	4bnX	.	.	.
.	.	.	.	8fJ	.	.	.	.	.
2C	-gio,	4c	-reo	2g	-go,	2cc	-gio,	.	.
.	.	[4c	veg-	.	.	.	.	4ee	-reo
=18	=18	=18	=18	=18	=18	=18	=18	=18	=18
2r	.	4c]	.	2.g	Et	2r	.	2dd	veg-
.	.	4BnX	.	.	.	.	.	.	.
4r	.	2c	-go,	.	.	4r	.	2cc	-go,
4c	Et	.	.	4g	un	4cc	Et	.	.
4A	un	1r	.	4a	va-	4cc	un	1r	.
4.F	va-	.	.	4.a	-go	4.cc	va-	.	.
8F	-go	.	.	8a	can-	8cc	-go	.	.
4D	can-	.	.	4a	-dor,	4ff	can-	.	.
=19	=19	=19	=19	=19	=19	=19	=19	=19	=19
2A	-dor,	2r	.	2cc	Et	2.ee	-dor,	2r	.
2c	Et	2e	Et	2g	un	.	.	4r	.
.	.	.	.	.	.	4gg	Et	4cc	Et
4c	un	4e	un	4g	va-	4ee	un	4cc	un
4.A	va-	4.e	va-	4.a	-go	4.cc	va-	4.cc	va-
8A	-go	8e	-go	8a	can-	8a	-go	8cc	-go
4D	can-	4f	can-	4dd	-dor	4bnX	can-	4ff	can-
=20	=20	=20	=20	=20	=20	=20	=20	=20	=20
2.A	-dor	2c	-dor	8ccL	.	2.cc	-dor	2.ee	-dor
.	.	.	.	8b-y	.	.	.	.	.
.	.	.	.	8a	.	.	.	.	.
.	.	.	.	8gJ	.	.	.	.	.
.	.	2c	sem-	4a	.	.	.	.	.
4F	sem-	.	.	4a	sem-	4cc	sem-	4ff	sem-
4B-y	-pre	4d	-pre	4f	-pre	4b-i	-pre	4dd	-pre
4G	va-	4B-y	va-	4b-y	va-	4dd	va-	2gg	va-
4.A	-gheg-	2c	-gheg-	[2a	-gheg-	[2cc	-gheg-	.	.
.	.	.	.	.	.	.	.	[4ff	-gheg-
8B-y	.	.	.	.	.	.	.	.	.
=21	=21	=21	=21	=21	=21	=21	=21	=21	=21
1c	.	0c	-gio;	4a]	.	2cc]	.	4ff]	.
.	.	.	.	8gL	.	.	.	8eeL	.
.	.	.	.	8fJ	.	.	.	8ddJ	.
.	.	.	.	2g	.	2cc	-gio;	2ee	.
1F	-gio;	.	.	1a	-gio;	1r	.	1ff	-gio;
!!LO:TX:a:cj:t=[whole] &rarr; [whole-dot]
=22	=22	=22	=22	=22	=22	=22	=22	=22	=22
*M6/2	*	*M6/2	*	*M6/2	*	*M6/2	*	*M6/2	*
*omet(3)	*	*omet(3)	*	*omet(3)	*	*omet(3)	*	*omet(3)	*
1B-y	Sem-	1d	Sem-	1b-y	Sem-	1dd	Sem-	1%3r	.
2G	-pre	2d	-pre	2b-y	-pre	2gg	-pre	.	.
2.A	so-	2.a	so-	2.cc	so-	2.ee	so-	.	.
4F	-glio	4a	-glio	4cc	-glio	4ff	-glio	.	.
2G	gio-	2g	gio-	2bnX	gio-	2dd	gio-	.	.
=23	=23	=23	=23	=23	=23	=23	=23	=23	=23
1c	-i-	1e	-i-	1cc	-i-	1ee	-i-	1.r	.
2c	-re,	2e	-re,	2cc	-re,	2ee	-re,	.	.
1F	Sem-	1c	Sem-	1a	Sem-	1aa	Sem-	1cc	Sem-
2E	-pre	2G	-pre	2cc	-pre	2gg	-pre	2cc	-pre
=24	=24	=24	=24	=24	=24	=24	=24	=24	=24
2.F	so-	2.A	so-	2.a	so-	2.ff	so-	2.cc	so-
4C	-glio	4A	-glio	4a	-glio	4ee	-glio	4cc	-glio
2D	gio-	2d	gio-	2a	gio-	2dd	gio-	2ff	gio-
!!LO:TX:a:cj:t=[whole-dot] &rarr; [whole]
=25	=25	=25	=25	=25	=25	=25	=25	=25	=25
*M4/2	*	*M4/2	*	*M4/2	*	*M4/2	*	*M4/2	*
*omet(C)	*	*omet(C)	*	*omet(C)	*	*omet(C)	*	*omet(C)	*
1A	-i-	2e	-i-	2a	-i-	2cc#X	-i-	2ee	-i-
.	.	2e	-re,	2a	-re,	2cc#i	-re,	2ee	-re,
2D	-re,	4r	.	2r	.	1r	.	1r	.
.	.	4f	E	.	.	.	.	.	.
2r	.	4f	per-	4r	.	.	.	.	.
.	.	4e	-ché	4a	E	.	.	.	.
=26	=26	=26	=26	=26	=26	=26	=26	=26	=26
0r	.	4f	va-	4a	per-	0r	.	4r	.
.	.	4g	-ri	4g	-ché	.	.	4cc	E
.	.	4f	se-	4a	va-	.	.	4cc	per-
.	.	4d	-gno al	4f	-ri	.	.	4bnX	-ché
.	.	4c	mio	4.g	se-	.	.	4cc	va-
.	.	4B-y	pen-	.	.	.	.	4dd	-ri
.	.	.	.	8g	-gno al	.	.	.	.
.	.	2A	-sie-	4a	mio	.	.	4ee	se-
.	.	.	.	4a	pen-	.	.	4ff#X	-gno al
=27	=27	=27	=27	=27	=27	=27	=27	=27	=27
1r	.	2G	-ro,	2b-y	-sie-	1r	.	4gg	mio
.	.	.	.	.	.	.	.	4dd	pen-
.	.	4r	.	2a	-ro,	.	.	2ffnXi	-sie-
.	.	4d	E	.	.	.	.	.	.
4r	.	4.A	per-	1r	.	4r	.	1ee	-ro,
4A	E	.	.	.	.	4cc	E	.	.
.	.	8B-y	-ché	.	.	.	.	.	.
4A	per-	4c	va-	.	.	4cc	per-	.	.
4G	-ché	4d	-ri	.	.	4bnX	-ché	.	.
=28	=28	=28	=28	=28	=28	=28	=28	=28	=28
4A	va-	2.c	se-	1r	.	4cc	va-	2r	.
4BnX	-ri	.	.	.	.	4dd	-ri	.	.
4c	se-	.	.	.	.	4ee	se-	4r	.
4A	-gno al	4c	-gno al	.	.	4ff	-gno al	4cc	E
4G	mio	4d	mio	2r	.	4gg	mio	4cc	per-
4G	pen-	4G	pen-	.	.	4ee	pen-	4bnX	-ché
2F	-sie-	2A	-sie-	4r	.	2ff	-sie-	4.cc	va-
.	.	.	.	4a	E	.	.	.	.
.	.	.	.	.	.	.	.	8dd	-ri
=29	=29	=29	=29	=29	=29	=29	=29	=29	=29
2C	-ro	2c	-ro	4g	per-	4ee	-ro	4ee	se-
.	.	.	.	4g	-ché	2ee	È	4gg	-gno al
2r	.	2r	.	4a	va-	.	.	4ff	mio
.	.	.	.	4bnX	-ri	4dd	co-	4ff	pen-
4r	.	4r	.	2.cc	se-	1ee	-stan-	2ee	-sie-
2A	È	2e	È	.	.	.	.	.	.
.	.	.	.	.	.	.	.	4cc	-ro
4A	co-	4c	co-	4cc	-gno al	.	.	[4cc	È
=30	=30	=30	=30	=30	=30	=30	=30	=30	=30
1F	-stan-	1c	-stan-	4a	mio	1.ff	-te	4cc]	.
.	.	.	.	4a	pen-	.	.	4cc	co-
.	.	.	.	2a	-sie-	.	.	2a	-stan-
2D	-te	2d	-te	2a	-ro	.	.	4a	-te
.	.	.	.	.	.	.	.	2dd	l'ar-
2E	l'ar-	2g	l'ar-	2r	.	2ee	l'ar-	.	.
.	.	.	.	.	.	.	.	[4cc	-cie-
=31	=31	=31	=31	=31	=31	=31	=31	=31	=31
1G	-cie-	1d	-cie-	4r	.	1dd	-cie-	4cc]	.
.	.	.	.	2g	È	.	.	8bnXL	.
.	.	.	.	.	.	.	.	8aJ	.
.	.	.	.	.	.	.	.	2bnX	.
.	.	.	.	4g	co-	.	.	.	.
[1C	-ro,	1c	-ro,	1e	-stan-	4ee	-ro,	[1cc	-ro,
.	.	.	.	.	.	2gg	È	.	.
.	.	.	.	.	.	4gg	co-	.	.
=32	=32	=32	=32	=32	=32	=32	=32	=32	=32
1C]	.	4r	.	2c	-te	1ee	-stan-	1cc]	.
.	.	2c	È	.	.	.	.	.	.
.	.	.	.	2g	l'ar-	.	.	.	.
.	.	4c	co-	.	.	.	.	.	.
2r	.	1A	-stan-	2a	-cie-	4cc	-te	4r	.
.	.	.	.	.	.	4cc	l'ar-	2aa	È
[2F	É	.	.	4a	-ri,	2cc	-cie-	.	.
.	.	.	.	[4a	È	.	.	4aa	co-
=33	=33	=33	=33	=33	=33	=33	=33	=33	=33
4F]	.	2A	-te,	4a]	.	2cc	-ro,	1ff	-stan-
4F	co-	.	.	4a	co-	.	.	.	.
2.D	-stan-	2.d	È	2f	-stan-	4r	.	.	.
.	.	.	.	.	.	2ff	È	.	.
.	.	.	.	4a	-te	.	.	2.dd	-te
4D	-te	4d	co-	4a	l'ar-	4ff	co-	.	.
2BB-y	l'ar-	2d	-stan-	[2b-y	-cie-	2dd	-stan-	.	.
.	.	.	.	.	.	.	.	[4gg	l'ar-
=34	=34	=34	=34	=34	=34	=34	=34	=34	=34
1C	-cie-	4e	-te	4b-]	.	4g	-te	4gg]	.
.	.	4f	l'ar-	4a	.	4cc	l'ar-	2ff	-cie-
.	.	2g	-cie-	2g	.	2cc	-cie-	.	.
.	.	.	.	.	.	.	.	4ee	.
1F	-ro,	1f	-ro,	1a	-ro,	1cc	-ro,	1ff	-ro,
!!LO:TX:a:cj:t=[whole] &rarr; [whole-dot]
=35	=35	=35	=35	=35	=35	=35	=35	=35	=35
*M6/2	*	*M6/2	*	*M6/2	*	*M6/2	*	*M6/2	*
*omet(3)	*	*omet(3)	*	*omet(3)	*	*omet(3)	*	*omet(3)	*
1B-y	Sem-	1f	Sem-	1b-y	Sem-	1%3r	.	1dd	Sem-
2G	-pre	2g	-pre	2b-y	-pre	.	.	2gg	-pre
2.A	so-	2.c	so-	2.cc	so-	.	.	2.ee	so-
4F	-glio	4c	-glio	4cc	-glio	.	.	4ff	-glio
2G	gio-	2g	gio-	2bnX	gio-	.	.	2dd	gio-
=36	=36	=36	=36	=36	=36	=36	=36	=36	=36
1c	-i-	1g	-i-	1cc	-i-	1.r	.	1ee	-i-
2c	-re,	2g	-re,	2cc	-ra,	.	.	2ee	-re,
1F	Sem-	1f	Sem-	1a	Sem-	1cc	Sem-	1aa	Sem-
2E	-pre	2g	-pre	2cc	-pre	2cc	-pre	2gg	-pre
=37	=37	=37	=37	=37	=37	=37	=37	=37	=37
2.F	so-	2.c	so-	2.a	so-	2.cc	so-	2.ff	so-
4C	-glio	4c	-glio	4a	-glio	4cc	-glio	4ee	-glio
2D	gio-	2A	gio-	2a	gio-	2ff	gio-	2dd	gio-
1.A	-i-	1A	-i-	1a	-i-	1ee	-i-	1cc#X	-i-
.	.	2A	-re,	2a	-re,	2ee	-re,	2cc#i	-re,
!!LO:TX:a:cj:t=[whole-dot] &rarr; [whole]
=38	=38	=38	=38	=38	=38	=38	=38	=38	=38
*M4/2	*	*M4/2	*	*M4/2	*	*M4/2	*	*M4/2	*
*omet(C)	*	*omet(C)	*	*omet(C)	*	*omet(C)	*	*omet(C)	*
2D	-re,	4r	.	2r	.	1r	.	0r	.
.	.	4d	E	.	.	.	.	.	.
2r	.	4d	per-	4r	.	.	.	.	.
.	.	4c#X	-ché	4a	E	.	.	.	.
1r	.	4d	va-	4a	per-	4r	.	.	.
.	.	4e	-ri	4g	-ché	4cc	E	.	.
.	.	2f	se-	4a	va-	4cc	per-	.	.
.	.	.	.	4f	-ri	4bnX	-ché	.	.
=39	=39	=39	=39	=39	=39	=39	=39	=39	=39
0r	.	4e	-gno al	4.g	se-	4cc	va-	0r	.
.	.	2d	mio	.	.	4dd	-ri	.	.
.	.	.	.	8g	-gno al	.	.	.	.
.	.	.	.	4a	mio	4ee	se-	.	.
.	.	4c#X	pen-	4a	pen-	4ff#X	-gno al	.	.
.	.	2d	-sie-	2b-y	-sie-	4gg	mio	.	.
.	.	.	.	.	.	4dd	pen-	.	.
.	.	4d	-ro,	2a	-ro,	2ffnXi	-sie-	.	.
.	.	4d	E	.	.	.	.	.	.
=40	=40	=40	=40	=40	=40	=40	=40	=40	=40
4r	.	4cnXi	per-	0r	.	1ee	-ro,	4r	.
4A	E	4e	-ché	.	.	.	.	4cc	E
4A	per-	4g	va-	.	.	.	.	4cc	perc-
4G	-ché	4g	-ri	.	.	.	.	4bnX	-hé
4A	va-	4f	se-	.	.	2r	.	4cc	va-
4BnX	-ri	4f	-gno al	.	.	.	.	4dd	-ri
4c	se-	4e	mio	.	.	4r	.	4ee	se-
4A	-gno al	4c	pen-	.	.	4cc	E	4ff#X	-gno al
=41	=41	=41	=41	=41	=41	=41	=41	=41	=41
4G	mio	2g	-sie-	2r	.	4cc	per-	4gg	mio
4G	pen-	.	.	.	.	4bnX	-ché	4ee	pen-
2F	-sie-	2c	-ro	4r	.	4.cc	va-	2ffnXi	-sie-
.	.	.	.	4a	E	.	.	.	.
.	.	.	.	.	.	8dd	-ri	.	.
2C	-ro	1r	.	4g	per-	4ee	se-	4ee	-ro
.	.	.	.	4g	-ché	4gg	-gno al	2ee	È
2r	.	.	.	4a	va-	4ff	mio	.	.
.	.	.	.	4bnX	-ri	4ff	pen-	4dd	co-
=42	=42	=42	=42	=42	=42	=42	=42	=42	=42
4r	.	2r	.	2.cc	se-	2ee	-si-	1ee	-stan-
2A	È	.	.	.	.	.	.	.	.
.	.	4r	.	.	.	4cc	-ro	.	.
4A	co-	2c	È	4cc	-gno al	2cc	È	.	.
1F	-stan-	.	.	4a	mio	.	.	[1ff	-te
.	.	4A	co-	4a	pen-	4cc	co-	.	.
.	.	[2A	-stan-	2f	-sie-	2a	-stan-	.	.
=43	=43	=43	=43	=43	=43	=43	=43	=43	=43
2D	-te	4A]	.	2f	-ro	4a	-te	2ff]	.
.	.	4A	-te	.	.	2dd	l'ar-	.	.
2E	l'ar-	2G	l'ar-	2r	.	.	.	2ee	l'ar-
.	.	.	.	.	.	2cc	-cie-	.	.
1G	-cie-	1G	-cie-	4r	.	.	.	1dd	-cie-
.	.	.	.	2g	È	8bnXL	.	.	.
.	.	.	.	.	.	8aJ	.	.	.
.	.	.	.	.	.	2bnX	.	.	.
.	.	.	.	4g	co-	.	.	.	.
=44	=44	=44	=44	=44	=44	=44	=44	=44	=44
0C	-ro,	2G	-ro,	1e	-stan-	0cc	-ro,	4ee	-ro,
.	.	.	.	.	.	.	.	2gg	È
.	.	2.g	È	.	.	.	.	.	.
.	.	.	.	.	.	.	.	4gg	co-
.	.	.	.	2c	-te	.	.	1ee	-stan-
.	.	4g	co-	.	.	.	.	.	.
.	.	[2e	-stan-	2g	l'ar-	.	.	.	.
=45	=45	=45	=45	=45	=45	=45	=45	=45	=45
2r	.	2e]	.	2a	-cie-	4r	.	4cc	-te
.	.	.	.	.	.	2aa	È	4cc	l'ar-
2.F	È	2f	-te,	4a	-ro,	.	.	2cc	-cie-
.	.	.	.	2a	È	4aa	co-	.	.
.	.	4r	.	.	.	1ff	-stan-	2cc	-ro
4F	co-	2a	È	4a	co-	.	.	.	.
[2D	-stan-	.	.	2f	-stan-	.	.	4r	.
.	.	4a	co-	.	.	.	.	[4ff	È
=46	=46	=46	=46	=46	=46	=46	=46	=46	=46
4D]	.	2f	-stan-	4a	-te	2.dd	-te	4ff]	.
4D	-te	.	.	4a	l'ar-	.	.	4ff	co-
2BB-y	l'ar-	4f	-te	2.b-y	-cie-	.	.	2dd	-stan-
.	.	4d	l'ar-	.	.	2gg	l'ar-	.	.
1C	-cie-	1c	-cie-	.	.	.	.	4g	-te
.	.	.	.	4a	.	2ff	-cie-	4cc	l'ar-
.	.	.	.	2g	.	.	.	2cc	-cie-
.	.	.	.	.	.	4ee	.	.	.
=47	=47	=47	=47	=47	=47	=47	=47	=47	=47
0Fl	-ro.	0cl	-ro.	0al	-ro.	0ffl	-ro.	0ccl	-ro.
==	==	==	==	==	==	==	==	==	==
*-	*-	*-	*-	*-	*-	*-	*-	*-	*-
!!!system-decoration: [*]
!!!RDF**kern: i = editorial accidental
!!!RDF**kern: l = terminal long
!!!ENC: Emiliano Ricciardi
!!!END: 2019
!!!EED: Ricciardi, Emiliano
!!!EEV: 2019/02/22
!!!YEC: Copyright 2018 Emiliano Ricciardi, All Rights Reserved
!!!ONB: Translated from MusicXML on 2019/02/22 and edited by Craig Stuart Sapp
!!@@BEGIN:	VERSEDATA
!!@SOLERTI:	266
!!@CATALOGNUM:	Trm0266
!!@LAST_MODIFIED: 2020/07/12
!!@TITLE:		Dolcissimi colori
!!@GENRE:		madrigale
!!@MANUSRC:	E<sub>1</sub>, F<sub>2</sub>, V<sub>13/E1</sub>
!!@PRINTSRC:	28, 48, 54, 141, 166, 169
!!@@BEGIN:	VERSES
!!@ABOUTIT:
!!@ABOUTEN:
!!@EDITOR:	Solerti, Angelo
!!@EDITION_TITLE: Le Rime di Torquato Tasso
!!@EDITION_LOC:	Bologna
!!@EDITION_PUB:	Romagnoli-Dall’Acqua
!!@EDITION_DATE:  1898-1902
!!@EDITION_VOL:	2
!!@EDITION_PAGE:  346
!!@TRANSLATOR:	Emiliano Ricciardi and Amyrose McCue Gill
!!@VERSE:
!!	Dolcissimi colori,
!!	Voi vi mutate, ed io
!!	Muto aspetto con voi, ma non desio.
!!	Sempre vorrei mirarvi, e se fiorire
!!	Un bel purpureo veggio,
!!	E quel vago candor sempre io vagheggio;
!!	E perché vari segno al mio pensiero
!!	È costante l'arciero.
!!@TVERSE:
!!	Sweetest colors,
!!	You change yourselves, and I
!!	Change appearance, but not desire, with you.
!!	I would want to gaze at you forever, and if the flowering of
!!	A beautiful redness I see,
!!	Or that lovely paleness I always crave;
!!	And he may shift [his] aim with my thought,
!!	The archer is steady.
!!@@END:		VERSES
!!@OTHER_CRIT_ED:   None
!!@ATTRIBUTION_ABOUT:	Secure
!!		<br>
!!		Among other sources (see Literary Sources), this poem appears in the authoritative manuscript It. 385, Biblioteca Estense Universitaria, Modena.
!!@DATING:	Mid-1580s or earlier
!!@DEDICATEE:
!!@COMMENTARY:
!!@@END:		VERSEDATA
!!@@BEGIN:	SETTING
!!@CATALOGNUM:	Trm0266a
!!@RIMETITLE:	Dolcissimi colori
!!@SOLERTI:	266
!!@COMPOSER:	Virchi, Paolo
!!@PRINCEPSTITLE:	Il primo libro de madrigali a sei voci
!!@PRINCEPSLOC:	Venetia
!!@NORMLOC:	Venice
!!@NORMPUB:	Amadino
!!@NORMPUBSHORT:	Amadino
!!@PRINCEPSPUB:	Amadino
!!@PRINCEPSYEAR:	1591
!!@PRINCEPSRISM:	V 2107
!!@REPRINTS:	
!!@OVOICES:	6
!!@EXTANTVOICES:	5
!!@PARTBOOKS:	
!!@EXTPARTBOOKS:	
!!@OCLEFS:	G2,G2,C2,C3,F3
!!@OMENSURATION:	C; 3; C; 3; C
!!@OKEYSIG:	b-
!!@FINAL:	F
!!@TIMPEDITOR:	Ricciardi, Emiliano
!!@NOTE:		
!!@@END:		SETTING
